X: 13752
T: Forget Me Not
R: reel
M: 4/4
K: Gmajor
|:g2bg edBA|GE E2 DEGA|B3d g2fg|eaag agef|
gbag edBA|GE E2 DEGA|Bdgb afge|1 dBAB G3f:|2 dBAB Gdef||
|:g3f eBdB|cABG AGEF|G3F GABc|dBGB A2 (3Bcd|
e3B dBAB|GABG AGEG|DEGB AFGE|1 DBAB GDEF:|2 DBAB G3F||

